X:1
T:Ihr Kinderlein Kommet, 11.11.11.11
T:Ihr Kinderlein Kommet, 11.11.11.11
T:Johann Abraham Peter Schulz, 1790
T:Public Domain Courtesy of the Cyber Hymnal™
C:Johann Abraham Peter Schulz, 1790
Z:Public Domain
Z:Courtesy of the Cyber Hymnal™
%%score ( 1 2 ) ( 3 4 )
L:1/8
M:4/4
K:Eb
V:1 treble 
V:2 treble 
V:3 bass 
V:4 bass 
V:1
 [EB]2 | [EB]4 [EG]2 [EB]2 | [EB]4 [EG]2 [EB]2 | [EA]4 [DF]2 [DF]2 | [EG]6 :| [EG]2 | %6
 [DF]4 [DF]2 [DF]2 | [FA]4 [FA]2 [FA]2 | [EG]4 [EG]2 [EG]2 | [Ec]6 [Ec]2 | [EB]4 [EB]2 [EB]2 | %11
 [Ee]4 [EB]2 [EG]2 | [FA]4 [DF]2 [DF]2 | E6 |] %14
V:2
 x2 | x8 | x8 | x8 | x6 :| x2 | x8 | x8 | x8 | x8 | x8 | x8 | x8 | E6 |] %14
V:3
 [E,G,]2 | [E,G,]4 [E,B,]2 [E,G,]2 | [E,G,]4 [E,B,]2 [E,G,]2 | [F,A,]4 [B,,B,]2 [B,,B,]2 | %4
 [E,G,]6 :| [E,B,]2 | [B,,B,]4 [D,B,]2 [F,B,]2 | B,4 [D,B,]2 [D,B,]2 | [E,B,]4 [G,B,]2 [E,B,]2 | %9
 [A,,A,]6 A,2 | [E,G,]4 [E,G,]2 [E,G,]2 | [G,B,]4 [E,G,]2 [C,C]2 | [A,,C]4 [B,,B,]2 [B,,A,]2 | %13
 [E,G,]6 |] %14
V:4
 x2 | x8 | x8 | x8 | x6 :| x2 | x8 | B,4 x4 | x8 | x6 A,2 | x8 | x8 | x8 | x6 |] %14

